.local/share/icons/Gruvbox-Plus-Dark/panel/24/screencloud-uploading.svg

<svg xmlns="http://www.w3.org/2000/svg" width="24" height="24" version="1.1">
 <defs>
  <style id="current-color-scheme" type="text/css">
   .ColorScheme-Text { color:#ebdbb2; } .ColorScheme-Highlight { color:#458588; }
  </style>
 </defs>
 <path style="fill:currentColor" class="ColorScheme-Text" d="M 9.5,6 C 6.4624339,6 4,8.4624339 4,11.5 4.00244,11.720141 4.018091,11.939938 4.046875,12.158203 2.8250871,12.567585 2.0011893,13.711451 2,15 c 0,1.656854 1.3431458,3 3,3 l 14,0 c 1.656854,0 3,-1.343146 3,-3 C 21.9987,13.726732 21.193805,12.592982 19.992188,12.171875 19.996023,12.114646 19.998629,12.057341 20,12 20,9.790861 18.209139,8 16,8 15.335328,8.0015368 14.681516,8.1686818 14.097656,8.4863281 13.08199,6.9357523 11.353608,6.0010752 9.5,6 Z M 6.984375,8 C 7.537375,8 8,8.448 8,9 8,9.552 7.537375,10 6.984375,10 6.431375,10 6,9.552 6,9 6,8.448 6.432275,8 6.984375,8 Z M 12,9 l 0,0 3,5 -2,0 0,3 -2,0 0,-3 -2,0 z"/>
</svg>

<svg width="24" height="24" version="1.1" xmlns="http://www.w3.org/2000/svg">
  <defs>
    <style id="current-color-scheme" type="text/css">.ColorScheme-Text { color:#ebdbb2; } .ColorScheme-Highlight { color:#458588; } .ColorScheme-NeutralText { color:#fe8019; } .ColorScheme-PositiveText { color:#689d6a; } .ColorScheme-NegativeText { color:#fb4934; }</style>
  </defs>
  <path class="ColorScheme-Text" d="m9.5 6c-3.038 0-5.5 2.462-5.5 5.5 0.00244 0.2201 0.01809 0.4399 0.04688 0.6582-1.222 0.4094-2.046 1.553-2.047 2.842 0 1.657 1.343 3 3 3h14c1.657 0 3-1.343 3-3-0.0013-1.273-0.8062-2.407-2.008-2.828 0.003835-0.05723 0.006441-0.1145 0.007812-0.1719 0-2.209-1.791-4-4-4-0.6647 0.001537-1.318 0.1687-1.902 0.4863-1.016-1.551-2.744-2.485-4.598-2.486zm-2.516 2c0.553 0 1.016 0.448 1.016 1s-0.4626 1-1.016 1-0.9844-0.448-0.9844-1 0.4323-1 0.9844-1zm5.016 1 3 5h-2v3h-2v-3h-2z" fill="currentColor"/>
</svg>
